icons/filled/square-f0.svg

<svg xmlns="http://www.w3.org/2000/svg" width="24" height="24" viewBox="0 0 24 24" fill="currentColor"><path d="M18.333 2c1.96 0 3.56 1.537 3.662 3.472l.005 .195v12.666c0 1.96 -1.537 3.56 -3.472 3.662l-.195 .005h-12.666a3.667 3.667 0 0 1 -3.662 -3.472l-.005 -.195v-12.666c0 -1.96 1.537 -3.56 3.472 -3.662l.195 -.005h12.666zm-3.833 6a2.5 2.5 0 0 0 -2.495 2.336l-.005 .164v3l.005 .164a2.5 2.5 0 0 0 4.99 0l.005 -.164v-3l-.005 -.164a2.5 2.5 0 0 0 -2.495 -2.336zm-4.5 0h-2l-.117 .007a1 1 0 0 0 -.876 .876l-.007 .117v6l.007 .117a1 1 0 0 0 .876 .876l.117 .007l.117 -.007a1 1 0 0 0 .876 -.876l.007 -.117v-2h1l.117 -.007a1 1 0 0 0 0 -1.986l-.117 -.007h-1v-1h1l.117 -.007a1 1 0 0 0 0 -1.986l-.117 -.007zm4.5 2a.5 .5 0 0 1 .492 .41l.008 .09v3l-.008 .09a.5 .5 0 0 1 -.984 0l-.008 -.09v-3l.008 -.09a.5 .5 0 0 1 .492 -.41z"/></svg>

<svg xmlns="http://www.w3.org/2000/svg" width="24" height="24" fill="currentColor"><path d="M18.333 2c1.96 0 3.56 1.537 3.662 3.472l.005.195v12.666c0 1.96-1.537 3.56-3.472 3.662l-.195.005H5.667a3.667 3.667 0 0 1-3.662-3.472L2 18.333V5.667c0-1.96 1.537-3.56 3.472-3.662L5.667 2zM14.5 8a2.5 2.5 0 0 0-2.495 2.336L12 10.5v3l.005.164a2.5 2.5 0 0 0 4.99 0L17 13.5v-3l-.005-.164A2.5 2.5 0 0 0 14.5 8M10 8H8l-.117.007a1 1 0 0 0-.876.876L7 9v6l.007.117a1 1 0 0 0 .876.876L8 16l.117-.007a1 1 0 0 0 .876-.876L9 15v-2h1l.117-.007a1 1 0 0 0 0-1.986L10 11H9v-1h1l.117-.007a1 1 0 0 0 0-1.986zm4.5 2a.5.5 0 0 1 .492.41l.008.09v3l-.008.09a.5.5 0 0 1-.984 0L14 13.5v-3l.008-.09A.5.5 0 0 1 14.5 10"/></svg>
